icons/core/export.svg

<svg width="32" height="32" viewBox="0 0 32 32" fill="none" xmlns="http://www.w3.org/2000/svg">
<path fill-rule="evenodd" clip-rule="evenodd" d="M16.7074 3.79292L16.0003 3.08582L15.2932 3.79292L6.79314 12.2929L8.20735 13.7071L15.0003 6.91422L15.0003 24H17.0003L17.0003 6.91425L23.7931 13.7071L25.2074 12.2929L16.7074 3.79292ZM4.00024 28V24H6.00024V28H26.0002V24H28.0002V28C28.0002 29.1046 27.1048 30 26.0002 30H6.00024C4.89567 30 4.00024 29.1046 4.00024 28Z" fill="black"/>
</svg>

<svg viewBox="0 0 32 32" xmlns="http://www.w3.org/2000/svg"><path fill-rule="evenodd" d="M16.707 3.793L16 3.086l-.707.707-8.5 8.5 1.414 1.414L15 6.914V24h2V6.914l6.793 6.793 1.414-1.414-8.5-8.5zM4 28v-4h2v4h20v-4h2v4a2 2 0 01-2 2H6a2 2 0 01-2-2z"/></svg>
